frontend/public/c210.svg

<svg width="60" height="65" viewBox="0 0 60 65" fill="none" xmlns="http://www.w3.org/2000/svg">
<path d="M20.01 41.7234L6.519 27.3487L6.348 27.1374C6.09483 26.7692 5.97275 26.3144 6.00416 25.8565C6.03557 25.3986 6.21837 24.9683 6.519 24.6447L20.01 10.2764L20.196 10.1042C21.276 9.22669 22.866 10.0717 22.866 11.6284V18.5509L23.541 18.5997C34.23 19.5162 40.491 26.8449 41.985 40.1374C42.177 41.8437 40.371 42.9129 39.201 41.7819C34.908 37.6284 30.471 35.0479 25.866 34.0144C25.128 33.8487 24.387 33.7219 23.64 33.6342L22.866 33.5594V40.3714L22.851 40.6379C22.671 42.1102 21.024 42.8024 20.01 41.7234ZM23.322 21.8399L19.866 21.5897V14.9824L9.528 25.9934L19.866 37.0109V30.0007L23.934 30.3972H23.958C29.067 30.9919 33.888 33.2084 38.439 36.9037C37.545 32.5519 36.018 29.2792 34.011 26.9359C31.521 24.0272 28.041 22.2462 23.322 21.8367V21.8399ZM43.5 12.9999C45.4891 12.9999 47.3968 13.856 48.8033 15.3797C50.2098 16.9034 51 18.9701 51 21.1249V47.1249C51 49.2798 50.2098 51.3464 48.8033 52.8702C47.3968 54.3939 45.4891 55.2499 43.5 55.2499H19.5C17.5109 55.2499 15.6032 54.3939 14.1967 52.8702C12.7902 51.3464 12 49.2798 12 47.1249V43.8749C12 43.444 12.158 43.0306 12.4393 42.7259C12.7206 42.4211 13.1022 42.2499 13.5 42.2499C13.8978 42.2499 14.2794 42.4211 14.5607 42.7259C14.842 43.0306 15 43.444 15 43.8749V47.1249C15 48.4179 15.4741 49.6578 16.318 50.5721C17.1619 51.4863 18.3065 51.9999 19.5 51.9999H43.5C44.6935 51.9999 45.8381 51.4863 46.682 50.5721C47.5259 49.6578 48 48.4179 48 47.1249V21.1249C48 19.832 47.5259 18.592 46.682 17.6778C45.8381 16.7636 44.6935 16.2499 43.5 16.2499H34.5C34.1022 16.2499 33.7206 16.0787 33.4393 15.774C33.158 15.4692 33 15.0559 33 14.6249C33 14.194 33.158 13.7806 33.4393 13.4759C33.7206 13.1711 34.1022 12.9999 34.5 12.9999H43.5Z" fill="#F24E1E"/>
</svg>

<?xml version="1.0" encoding="UTF-8"?>
<svg id="Layer_1" data-name="Layer 1" xmlns="http://www.w3.org/2000/svg" width="60" height="65" viewBox="0 0 60 65">
  <defs>
    <style>
      .cls-1 {
        fill: #eece93;
        stroke: #eece93;
        stroke-miterlimit: 10;
      }
    </style>
  </defs>
  <path class="cls-1" d="M20.01,41.72l-13.49-14.37-.17-.21c-.25-.37-.38-.82-.34-1.28.03-.46.21-.89.51-1.21l13.49-14.37.19-.17c1.08-.88,2.67-.03,2.67,1.52v6.92l.68.05c10.69.92,16.95,8.25,18.44,21.54.19,1.71-1.61,2.78-2.78,1.64-4.29-4.15-8.73-6.73-13.34-7.77-.74-.17-1.48-.29-2.23-.38l-.77-.07v7.08c-.19,1.47-1.84,2.16-2.86,1.09ZM23.32,21.84l-3.46-.25v-6.61l-10.34,11.01,10.34,11.02v-7.01l4.07.4h.02c5.11.59,9.93,2.81,14.48,6.51-.89-4.35-2.42-7.62-4.43-9.97-2.49-2.91-5.97-4.69-10.69-5.1h0ZM43.5,13c1.99,0,3.9.86,5.3,2.38,1.41,1.52,2.2,3.59,2.2,5.75v26c0,2.15-.79,4.22-2.2,5.75-1.41,1.52-3.31,2.38-5.3,2.38h-24c-1.99,0-3.9-.86-5.3-2.38-1.41-1.52-2.2-3.59-2.2-5.75v-3.25c0-.43.16-.84.44-1.15.28-.3.66-.48,1.06-.48s.78.17,1.06.48c.28.3.44.72.44,1.15v3.25c0,1.29.47,2.53,1.32,3.45.84.91,1.99,1.43,3.18,1.43h24c1.19,0,2.34-.51,3.18-1.43.84-.91,1.32-2.15,1.32-3.45v-26c0-1.29-.47-2.53-1.32-3.45-.84-.91-1.99-1.43-3.18-1.43h-9c-.4,0-.78-.17-1.06-.48-.28-.3-.44-.72-.44-1.15s.16-.84.44-1.15c.28-.3.66-.48,1.06-.48h9Z"/>
</svg>
